docs/static/img/github.svg

<svg width="32" height="32" viewBox="0 0 32 32" fill="none" xmlns="http://www.w3.org/2000/svg">
<path d="M15.9857 0.439454C7.15357 0.435883 0 7.58588 0 16.4109C0 23.3895 4.475 29.3216 10.7071 31.5002C11.5464 31.7109 11.4179 31.1145 11.4179 30.7073V27.9395C6.57143 28.5073 6.375 25.3002 6.05 24.7645C5.39286 23.643 3.83929 23.3573 4.30357 22.8216C5.40714 22.2537 6.53214 22.9645 7.83571 24.8895C8.77857 26.2859 10.6179 26.0502 11.55 25.818C11.7536 24.9787 12.1893 24.2287 12.7893 23.6466C7.76786 22.7466 5.675 19.6823 5.675 16.0395C5.675 14.2716 6.25714 12.6466 7.4 11.3359C6.67143 9.17517 7.46786 7.32517 7.575 7.05017C9.65 6.86445 11.8071 8.53588 11.975 8.66803C13.1536 8.35017 14.5 8.18231 16.0071 8.18231C17.5214 8.18231 18.8714 8.35731 20.0607 8.67874C20.4643 8.3716 22.4643 6.93588 24.3929 7.11088C24.4964 7.38588 25.275 9.19303 24.5893 11.3252C25.7464 12.6395 26.3357 14.2787 26.3357 16.0502C26.3357 19.7002 24.2286 22.768 19.1929 23.6537C19.6242 24.0779 19.9667 24.5838 20.2003 25.1418C20.4339 25.6998 20.554 26.2988 20.5536 26.9037V30.9216C20.5821 31.243 20.5536 31.5609 21.0893 31.5609C27.4143 29.4287 31.9679 23.4537 31.9679 16.4145C31.9679 7.58588 24.8107 0.439454 15.9857 0.439454V0.439454Z" fill="black"/>
</svg>

<svg xmlns="http://www.w3.org/2000/svg" width="32" height="32" fill="none" xmlns:v="https://vecta.io/nano"><path d="M15.986.439C7.154.436 0 7.586 0 16.411 0 23.39 4.475 29.322 10.707 31.5c.839.211.711-.386.711-.793V27.94c-4.846.568-5.043-2.639-5.368-3.175-.657-1.122-2.211-1.407-1.746-1.943 1.104-.568 2.229.143 3.532 2.068.943 1.396 2.782 1.161 3.714.928.204-.839.639-1.589 1.239-2.171-5.021-.9-7.114-3.964-7.114-7.607 0-1.768.582-3.393 1.725-4.704-.729-2.161.068-4.011.175-4.286 2.075-.186 4.232 1.486 4.4 1.618 1.179-.318 2.525-.486 4.032-.486 1.514 0 2.864.175 4.054.496.404-.307 2.404-1.743 4.332-1.568.104.275.882 2.082.196 4.214 1.157 1.314 1.746 2.954 1.746 4.725 0 3.65-2.107 6.718-7.143 7.604.431.424.774.93 1.007 1.488s.354 1.157.353 1.762v4.018c.029.321 0 .639.536.639 6.325-2.132 10.879-8.107 10.879-15.146A15.98 15.98 0 0 0 15.986.439h0z" fill="#000"/></svg>
